ka2_2024/src/CommonPictures/ТранспортFresh/Picture.svg

<svg width="16" height="16" xmlns="http://www.w3.org/2000/svg" fill="none">

 <g>
  <title>Layer 1</title>
  <path id="svg_1" fill="#00bf00" d="m12.2312,5.38806c-0.7538,-1.49254 -2.26135,-2.38806 -3.99502,-2.38806c-1.80904,0 -3.54271,1.04478 -4.29648,2.61194c0.07538,0 0.07538,0 0.15075,0c0.67839,0 1.35679,0.14925 1.9598,0.44776c0.52764,-0.67164 1.35679,-1.04477 2.26131,-1.04477c1.05527,0 1.95984,0.67164 2.33664,1.71641l0.1508,0.67165l1.3568,0c1.0553,0 1.8844,0.82089 1.8844,1.86567c0,0.97014 -0.8291,1.71644 -1.8844,1.71644l-8.06535,0c-0.60301,0 -1.05527,-0.4478 -1.05527,-0.9702c0,-0.52236 0.37688,-1.04475 1.05527,-1.04475c0.60302,0 1.05528,0.44776 1.05528,1.11945l2.03517,0c0,-1.71647 -1.35678,-3.13438 -3.01507,-3.13438c-1.80905,0 -3.16583,1.34329 -3.16583,3.05968c0,1.6418 1.35678,2.9851 3.09045,2.9851l8.06535,0c2.1105,0 3.8442,-1.6418 3.8442,-3.73134c0,-2.16418 -1.6583,-3.8806 -3.7688,-3.8806z"/>
 </g>
</svg>

<svg width="16" height="16" viewBox="0 0 16 16" fill="none" xmlns="http://www.w3.org/2000/svg">
<path d="M12.2312 5.38806C11.4774 3.89552 9.96985 3 8.23618 3C6.42714 3 4.69347 4.04478 3.9397 5.61194C4.01508 5.61194 4.01508 5.61194 4.09045 5.61194C4.76884 5.61194 5.44724 5.76119 6.05025 6.0597C6.57789 5.38806 7.40704 5.01493 8.31156 5.01493C9.36683 5.01493 10.2714 5.68657 10.6482 6.73134L10.799 7.40299H12.1558C13.2111 7.40299 14.0402 8.22388 14.0402 9.26866C14.0402 10.2388 13.2111 10.9851 12.1558 10.9851H4.09045C3.48744 10.9851 3.03518 10.5373 3.03518 10.0149C3.03518 9.49254 3.41206 8.97015 4.09045 8.97015C4.69347 8.97015 5.14573 9.41791 5.14573 10.0896H7.1809C7.1809 8.37313 5.82412 6.95522 4.16583 6.95522C2.35678 6.95522 1 8.29851 1 10.0149C1 11.6567 2.35678 13 4.09045 13H12.1558C14.2663 13 16 11.3582 16 9.26866C16 7.10448 14.3417 5.38806 12.2312 5.38806Z" fill="#D71920"/>
</svg>
